X:16
T:Reel 16
M:4/4
K:Gmaj
L:1/8
G2BG BddB|c2ec efg2|G2BG Bddg|edcB A2BA|G2BG Bdde|dBgB e2dB|G2Bc dBGB|cedc BGG|f|gfed Bddf|gfef g2ga|bgaf gfed| (3efg dB AGAB|dfef g2gd| (3Bcd ef g2ga| (3bag af gfef|gedc BGG2|
